X:14004
T:Newcastle
R:Hornpipe
C:Trad. Playford 1651
O:England
M:4/4
L:1/8
Q:1/4=160
K:G
A2|"G"B2d2 "D7"G2A2|"G"G3A G2D2|"G"B2d2 G2d2|"C"e2g4 fe|
"G"d2B2 A2G2|"C"E2 e4 dc|"G"d2B2 "D7"A2>G2|"G"G6:|
|:ef|"G"gfed g3B|"C"A2g4 A2|"G"G3A B2F2|"C"E2 e4 f2|
"G"gfed g3B|"Am"A2A2 c3d|e2B2 "D7"A3G|"G"G6:|

